svg/fluentui-system-icons/ic_fluent_table_settings_28_regular.svg

<svg width="28" height="28" viewBox="0 0 28 28" fill="none" xmlns="http://www.w3.org/2000/svg">
<path d="M3 6.75C3 4.67893 4.67893 3 6.75 3H21.25C23.3211 3 25 4.67893 25 6.75V14.4995C24.5384 14.1527 24.0355 13.858 23.5 13.6241V11H18.5V13.2696C17.9746 13.4146 17.4724 13.6153 17 13.865V11L11 11V17L13.865 17C13.6153 17.4724 13.4146 17.9746 13.2696 18.5L11 18.5V23.5H13.6241C13.858 24.0355 14.1527 24.5384 14.4995 25H6.75C4.67893 25 3 23.3211 3 21.25V6.75ZM4.5 18.5V21.25C4.5 22.4926 5.50736 23.5 6.75 23.5H9.5V18.5H4.5ZM9.5 17V11H4.5V17H9.5ZM23.5 6.75C23.5 5.50736 22.4926 4.5 21.25 4.5H18.5V9.5H23.5V6.75ZM17 4.5H11V9.5L17 9.5V4.5ZM9.5 4.5H6.75C5.50736 4.5 4.5 5.50736 4.5 6.75V9.5H9.5V4.5ZM16.7962 16.6982C17.111 17.7885 16.4566 18.9219 15.355 19.1944L14.3315 19.4477C14.2779 19.7902 14.25 20.1417 14.25 20.5C14.25 20.8749 14.2805 21.2423 14.3391 21.5998L15.3147 21.8348C16.4272 22.1027 17.0885 23.2477 16.7646 24.3452L16.4408 25.4427C16.9588 25.9033 17.5501 26.2773 18.194 26.5433L19.0368 25.6571C19.8253 24.8278 21.1476 24.828 21.9359 25.6576L22.7856 26.5517C23.4282 26.2889 24.0189 25.9187 24.5372 25.4622L24.2023 24.3024C23.8876 23.2122 24.5419 22.0788 25.6435 21.8062L26.6685 21.5526C26.7221 21.21 26.75 20.8584 26.75 20.5C26.75 20.1255 26.7195 19.7584 26.6611 19.4012L25.6839 19.1659C24.5713 18.898 23.91 17.7529 24.2339 16.6554L24.5582 15.5564C24.0402 15.0961 23.449 14.7223 22.8053 14.4565L21.9617 15.3436C21.1732 16.1728 19.8509 16.1726 19.0626 15.3431L18.213 14.449C17.5703 14.7119 16.9797 15.0823 16.4615 15.539L16.7962 16.6982ZM20.5 22C19.6716 22 19 21.3285 19 20.5C19 19.6716 19.6716 19 20.5 19C21.3284 19 22 19.6716 22 20.5C22 21.3285 21.3284 22 20.5 22Z" fill="#212121"/>
</svg>

<svg xmlns="http://www.w3.org/2000/svg" width="28" height="28"><path d="M3 6.75A3.75 3.75 0 0 1 6.75 3h14.5A3.75 3.75 0 0 1 25 6.75v7.75a7.486 7.486 0 0 0-1.5-.876V11h-5v2.27a7.45 7.45 0 0 0-1.5.595V11h-6v6h2.865a7.45 7.45 0 0 0-.595 1.5H11v5h2.624c.234.535.529 1.038.875 1.5H6.75A3.75 3.75 0 0 1 3 21.25V6.75ZM4.5 18.5v2.75a2.25 2.25 0 0 0 2.25 2.25H9.5v-5h-5Zm5-1.5v-6h-5v6h5Zm14-10.25a2.25 2.25 0 0 0-2.25-2.25H18.5v5h5V6.75ZM17 4.5h-6v5h6v-5Zm-7.5 0H6.75A2.25 2.25 0 0 0 4.5 6.75V9.5h5v-5Zm7.296 12.198a2 2 0 0 1-1.441 2.496l-1.024.254a6.803 6.803 0 0 0 .008 2.152l.976.235a2 2 0 0 1 1.45 2.51l-.324 1.098a6.23 6.23 0 0 0 1.753 1.1l.843-.886a2 2 0 0 1 2.899 0l.85.895a6.206 6.206 0 0 0 1.751-1.09l-.335-1.16a2 2 0 0 1 1.441-2.496l1.026-.253a6.807 6.807 0 0 0-.008-2.152l-.977-.235a2 2 0 0 1-1.45-2.51l.324-1.1a6.208 6.208 0 0 0-1.753-1.1l-.843.888a2 2 0 0 1-2.9 0l-.849-.895a6.202 6.202 0 0 0-1.752 1.09l.335 1.16ZM20.5 22a1.5 1.5 0 1 1 0-3 1.5 1.5 0 0 1 0 3Z"/></svg>
